assets/svg/categories_games.svg

<svg width="48" height="48" viewBox="0 0 48 48" fill="none" xmlns="http://www.w3.org/2000/svg">
<path d="M12.8973 17.6152C10.6426 17.6152 8.81445 19.4434 8.81445 21.698C8.81445 23.9527 10.6426 25.7809 12.8973 25.7809C15.152 25.7809 16.9801 23.9527 16.9801 21.698C16.9801 19.4434 15.152 17.6152 12.8973 17.6152ZM15.0816 22.0262H13.2254V23.8824C13.2254 24.0634 13.0782 24.2105 12.8973 24.2105C12.7163 24.2105 12.5691 24.0634 12.5691 23.8824V22.0262H10.7129C10.532 22.0262 10.3848 21.879 10.3848 21.698C10.3848 21.5171 10.532 21.3699 10.7129 21.3699H12.5691V19.5137C12.5691 19.3327 12.7163 19.1855 12.8973 19.1855C13.0782 19.1855 13.2254 19.3327 13.2254 19.5137V21.3699H15.0816C15.2626 21.3699 15.4098 21.5171 15.4098 21.698C15.4098 21.879 15.2626 22.0262 15.0816 22.0262Z" fill="#0166FF"/>
<path d="M24.0009 21.0409C25.1276 21.0409 26.0409 20.1276 26.0409 19.0009C26.0409 17.8743 25.1276 16.9609 24.0009 16.9609C22.8743 16.9609 21.9609 17.8743 21.9609 19.0009C21.9609 20.1276 22.8743 21.0409 24.0009 21.0409Z" fill="#0166FF"/>
<path d="M35.1025 20.1952C35.8149 20.1952 36.3925 19.6177 36.3925 18.9052C36.3925 18.1928 35.8149 17.6152 35.1025 17.6152C34.3901 17.6152 33.8125 18.1928 33.8125 18.9052C33.8125 19.6177 34.3901 20.1952 35.1025 20.1952Z" fill="#0166FF"/>
<path d="M35.1025 25.7812C35.8149 25.7812 36.3925 25.2036 36.3925 24.4912C36.3925 23.7787 35.8149 23.2012 35.1025 23.2012C34.3901 23.2012 33.8125 23.7787 33.8125 24.4912C33.8125 25.2036 34.3901 25.7812 35.1025 25.7812Z" fill="#0166FF"/>
<path d="M37.8955 22.9882C38.6079 22.9882 39.1855 22.4107 39.1855 21.6982C39.1855 20.9858 38.6079 20.4082 37.8955 20.4082C37.183 20.4082 36.6055 20.9858 36.6055 21.6982C36.6055 22.4107 37.183 22.9882 37.8955 22.9882Z" fill="#0166FF"/>
<path d="M32.3095 22.9882C33.022 22.9882 33.5995 22.4107 33.5995 21.6982C33.5995 20.9858 33.022 20.4082 32.3095 20.4082C31.5971 20.4082 31.0195 20.9858 31.0195 21.6982C31.0195 22.4107 31.5971 22.9882 32.3095 22.9882Z" fill="#0166FF"/>
<path d="M24.6019 33.7049H22.0191C22.0725 33.4462 22.0997 33.178 22.0997 32.9043C22.0997 30.7087 20.3137 28.9227 18.1181 28.9227C15.9225 28.9227 14.1366 30.7087 14.1366 32.9043C14.1366 33.4809 14.2612 34.0293 14.4825 34.5243C14.1507 34.6811 13.8294 34.8593 13.5206 35.0577V33.359C13.5206 31.5946 12.7322 29.9465 11.3587 28.8393L9.03938 26.969C7.2525 25.529 6.22781 23.3868 6.22781 21.0918C6.22781 20.9109 6.08063 20.7637 5.89969 20.7637C5.71875 20.7637 5.57156 20.9109 5.57156 21.0918C5.57156 23.5865 6.68531 25.9143 8.62688 27.4799L10.9462 29.3502C12.165 30.3327 12.8634 31.7934 12.8634 33.359V35.5227C11.925 36.2587 11.1412 37.1868 10.5787 38.249L8.71219 41.7712C8.13469 42.8596 7.01156 43.5365 5.77875 43.5365C4.26844 43.5365 2.9475 42.5155 2.56688 41.054C2.07647 39.1713 1.82822 37.2338 1.82812 35.2884C1.82812 33.0487 2.11594 30.8137 2.68406 28.6471L2.84344 28.0377C2.86544 27.9536 2.85311 27.8641 2.80916 27.789C2.7652 27.714 2.69323 27.6594 2.60906 27.6374C2.5249 27.6154 2.43544 27.6277 2.36037 27.6717C2.28529 27.7157 2.23075 27.7876 2.20875 27.8718L2.04938 28.4812C1.46693 30.7037 1.17202 32.9917 1.17188 35.2893C1.17187 37.289 1.42781 39.2849 1.93219 41.2199C2.38875 42.9702 3.97031 44.1927 5.77969 44.1927C7.25531 44.1927 8.60156 43.3827 9.2925 42.0787L11.1591 38.5565C11.9606 37.0434 13.2497 35.8237 14.7994 35.1009C15.5128 36.1752 16.7334 36.8859 18.1181 36.8859C19.7991 36.8859 21.2391 35.8377 21.8222 34.3621H24.6009C24.7819 34.3621 24.9291 34.2149 24.9291 34.034C24.9291 33.853 24.7837 33.7049 24.6019 33.7049ZM14.7937 32.9043C14.7937 31.0705 16.2853 29.579 18.1191 29.579C18.9272 29.579 19.6687 29.8687 20.2453 30.3505C19.846 30.2055 19.4243 30.1315 18.9994 30.1321C16.9819 30.1321 15.3459 31.768 15.3459 33.7855C15.3459 34.2234 15.4237 34.6424 15.5644 35.0315C15.0844 34.454 14.7937 33.7124 14.7937 32.9043Z" fill="#9A9A9A"/>
<path d="M45.9521 28.4807L43.6496 19.6982C42.9605 17.0695 41.1464 14.917 38.6724 13.7929C37.493 13.2566 36.2077 12.9866 34.9205 12.9904L35.4202 12.0445C35.448 11.9917 35.4897 11.9476 35.5407 11.9169C35.5918 11.8861 35.6503 11.87 35.7099 11.8701H41.8936C41.9199 11.8701 41.9405 11.8907 41.9405 11.917V12.712C41.9405 12.7354 41.9236 12.7551 41.9002 12.7579L40.9205 12.906C40.8774 12.9119 40.8359 12.9263 40.7984 12.9484C40.7609 12.9704 40.7282 12.9997 40.7021 13.0346C40.6761 13.0694 40.6572 13.1091 40.6466 13.1513C40.636 13.1935 40.6339 13.2373 40.6404 13.2804C40.647 13.3234 40.662 13.3647 40.6846 13.4018C40.7072 13.439 40.737 13.4713 40.7723 13.4968C40.8075 13.5223 40.8474 13.5406 40.8898 13.5506C40.9321 13.5605 40.976 13.5619 41.0189 13.5548L41.9986 13.4066C42.3455 13.3541 42.5968 13.0616 42.5968 12.711V11.916C42.5968 11.5279 42.2818 11.2129 41.8936 11.2129H35.7099C35.3443 11.2129 35.0105 11.4135 34.8399 11.737L34.1593 13.0241C33.7008 13.0639 33.2461 13.1385 32.7989 13.2473C30.2258 13.8814 27.5854 14.2022 24.9352 14.2026H23.0639C20.4164 14.2026 17.7708 13.881 15.2002 13.2473C14.7533 13.1376 14.2984 13.063 13.8399 13.0241L13.1593 11.737C13.0758 11.5786 12.9507 11.446 12.7973 11.3536C12.644 11.2612 12.4683 11.2126 12.2893 11.2129H6.10739C5.71926 11.2129 5.40426 11.5279 5.40426 11.916V12.711C5.40426 13.0616 5.65551 13.3541 6.00239 13.4066L6.98207 13.5548C7.14332 13.5791 7.26145 13.716 7.26145 13.8791V15.0951C5.85332 16.2763 4.83145 17.872 4.35332 19.6982L2.7802 25.6982C2.7693 25.7399 2.76672 25.7833 2.7726 25.826C2.77849 25.8686 2.79271 25.9097 2.81448 25.9469C2.83624 25.9841 2.86511 26.0166 2.89945 26.0426C2.93378 26.0686 2.9729 26.0876 3.01457 26.0985C3.05625 26.1094 3.09966 26.112 3.14233 26.1061C3.185 26.1002 3.2261 26.086 3.26327 26.0642C3.30044 26.0425 3.33296 26.0136 3.35898 25.9793C3.38499 25.9449 3.40399 25.9058 3.41489 25.8641L4.98801 19.8641C5.44176 18.1345 6.42051 16.6279 7.77051 15.5263C7.7902 15.5132 7.80801 15.4991 7.82395 15.4823C8.36844 15.0453 8.96561 14.6784 9.60145 14.3901C11.3002 13.6176 13.2333 13.4385 15.0455 13.8857C17.67 14.5321 20.3629 14.8592 23.0658 14.8598H24.9371C27.6371 14.8598 30.3361 14.5316 32.9574 13.8857C34.7696 13.4395 36.7027 13.6185 38.4015 14.391C40.6946 15.4335 42.3764 17.4285 43.0149 19.866L45.3174 28.6485C45.8856 30.8165 46.1732 33.0485 46.1733 35.2898C46.1733 37.2341 45.9249 39.1738 45.4346 41.0554C45.0539 42.517 43.733 43.5379 42.2227 43.5379C40.9908 43.5379 39.8668 42.862 39.2893 41.7726L37.4227 38.2504C36.8602 37.1882 36.0765 36.2601 35.138 35.5241V33.3604C35.138 31.7948 35.8374 30.3341 37.0552 29.3516L39.3746 27.4813C41.3161 25.9157 42.4299 23.5879 42.4299 21.0932C42.4299 20.9123 42.2827 20.7651 42.1018 20.7651C41.9208 20.7651 41.7736 20.9123 41.7736 21.0932C41.7736 23.3882 40.7489 25.5304 38.9621 26.9704L36.6427 28.8407C35.2683 29.9479 34.4808 31.596 34.4808 33.3604V35.0582C34.1719 34.86 33.8507 34.6818 33.5189 34.5248C33.7471 34.0152 33.865 33.4631 33.8649 32.9048C33.8649 30.7091 32.0789 28.9232 29.8833 28.9232C27.6877 28.9232 25.9018 30.7091 25.9018 32.9048C25.9018 35.1004 27.6877 36.8863 29.8833 36.8863C31.2671 36.8863 32.4886 36.1757 33.2021 35.1013C34.7527 35.8241 36.0399 37.0429 36.8424 38.557L38.709 42.0791C39.0464 42.718 39.552 43.2526 40.1711 43.6252C40.7901 43.9978 41.4992 44.1942 42.2218 44.1932C44.0311 44.1932 45.6127 42.9707 46.0693 41.2204C46.5736 39.2845 46.8296 37.2895 46.8296 35.2898C46.8296 32.9929 46.5343 30.7026 45.9521 28.4807ZM9.32957 13.7929C8.83601 14.0175 8.36351 14.2857 7.9177 14.5945V13.8791C7.9177 13.3888 7.56614 12.9791 7.08051 12.906L6.10082 12.7579C6.08974 12.7563 6.0796 12.7508 6.07222 12.7423C6.06483 12.7339 6.06068 12.7232 6.06051 12.712V11.917C6.06051 11.8907 6.08114 11.8701 6.10739 11.8701H12.2911C12.413 11.8701 12.5246 11.9366 12.5808 12.0445L13.0805 12.9904C11.7943 12.9876 10.5089 13.2566 9.32957 13.7929ZM26.558 32.9048C26.558 31.071 28.0496 29.5795 29.8833 29.5795C30.6914 29.5795 31.433 29.8691 32.0096 30.351C31.6102 30.2059 31.1885 30.132 30.7636 30.1326C28.7461 30.1326 27.1102 31.7685 27.1102 33.786C27.1102 34.2238 27.188 34.6429 27.3286 35.032C26.8477 34.4545 26.558 33.7129 26.558 32.9048Z" fill="#9A9A9A"/>
<path d="M22.3566 11.4407C22.2282 11.5691 22.2282 11.7763 22.3566 11.9048C22.4851 12.0332 22.6923 12.0332 22.8207 11.9048C23.4713 11.2541 24.5307 11.2541 25.1813 11.9048C25.2451 11.9685 25.3295 12.0004 25.4129 12.0004C25.4963 12.0004 25.5807 11.9685 25.6445 11.9048C25.675 11.8743 25.6992 11.8382 25.7157 11.7983C25.7323 11.7585 25.7408 11.7158 25.7408 11.6727C25.7408 11.6296 25.7323 11.5869 25.7157 11.5471C25.6992 11.5073 25.675 11.4711 25.6445 11.4407C24.7388 10.5341 23.2632 10.5341 22.3566 11.4407ZM27.6507 9.76352C27.7351 9.76352 27.8185 9.73164 27.8823 9.66695C27.9128 9.63651 27.937 9.60035 27.9535 9.56053C27.9701 9.52072 27.9786 9.47803 27.9786 9.43492C27.9786 9.39181 27.9701 9.34912 27.9535 9.30931C27.937 9.26949 27.9128 9.23333 27.8823 9.20289C25.742 7.06258 22.2601 7.06258 20.1198 9.20289C19.9913 9.33133 19.9913 9.53852 20.1198 9.66695C20.2482 9.79539 20.4554 9.79539 20.5838 9.66695C22.4682 7.78258 25.5338 7.78258 27.4182 9.66695C27.482 9.73164 27.5663 9.76352 27.6507 9.76352Z" fill="#9A9A9A"/>
<path d="M17.9061 6.98758C19.5345 5.35914 21.6992 4.46289 24.0017 4.46289C26.3042 4.46289 28.4689 5.36008 30.0973 6.98758C30.1611 7.05133 30.2455 7.0832 30.3289 7.0832C30.4123 7.0832 30.4967 7.05133 30.5605 6.98758C30.591 6.95714 30.6152 6.92098 30.6317 6.88116C30.6483 6.84134 30.6568 6.79866 30.6568 6.75555C30.6568 6.71244 30.6483 6.66975 30.6317 6.62993C30.6152 6.59012 30.591 6.55395 30.5605 6.52352C28.8092 4.77133 26.4795 3.80664 24.0017 3.80664C21.5239 3.80664 19.1942 4.77133 17.442 6.52352C17.3136 6.65195 17.3136 6.85914 17.442 6.98758C17.5705 7.11602 17.7777 7.11602 17.9061 6.98758ZM25.1792 23.1182H22.8252C22.4305 23.1182 22.1098 23.4388 22.1098 23.8335V24.6276C22.1098 25.0223 22.4305 25.3429 22.8252 25.3429H25.1792C25.5739 25.3429 25.8945 25.0223 25.8945 24.6276V23.8335C25.8936 23.4398 25.573 23.1182 25.1792 23.1182ZM22.7661 24.6276V23.8335C22.7661 23.8007 22.7923 23.7745 22.8252 23.7745H23.7411C23.6255 23.8842 23.5334 24.0164 23.4706 24.1629C23.4077 24.3094 23.3753 24.4672 23.3755 24.6266C23.3755 24.6463 23.3783 24.666 23.3811 24.6857H22.8242C22.7923 24.6857 22.7661 24.6595 22.7661 24.6276ZM25.1792 26.2729H22.8252C22.4305 26.2729 22.1098 26.5935 22.1098 26.9882V27.7823C22.1098 28.177 22.4305 28.4976 22.8252 28.4976H25.1792C25.5739 28.4976 25.8945 28.177 25.8945 27.7823V26.9882C25.8936 26.5945 25.573 26.2729 25.1792 26.2729ZM22.7661 27.7823V26.9882C22.7661 26.9554 22.7923 26.9291 22.8252 26.9291H23.7411C23.6255 27.0389 23.5334 27.1711 23.4706 27.3176C23.4077 27.4641 23.3753 27.6219 23.3755 27.7813C23.3755 27.801 23.3783 27.8207 23.3811 27.8404H22.8242C22.7923 27.8404 22.7661 27.8141 22.7661 27.7823Z" fill="#9A9A9A"/>
</svg>

<svg xmlns="http://www.w3.org/2000/svg" width="48" height="48" fill="none"><path fill="#0166FF" d="M12.897 17.615a4.083 4.083 0 1 0 0 8.166 4.083 4.083 0 0 0 0-8.166m2.185 4.411h-1.857v1.856a.328.328 0 0 1-.656 0v-1.856h-1.856a.329.329 0 0 1 0-.656h1.856v-1.856a.329.329 0 0 1 .656 0v1.856h1.857a.329.329 0 0 1 0 .656M24 21.04a2.04 2.04 0 1 0 .001-4.079 2.04 2.04 0 0 0 0 4.08M35.103 20.195a1.29 1.29 0 1 0 0-2.58 1.29 1.29 0 0 0 0 2.58M35.103 25.781a1.29 1.29 0 1 0 0-2.58 1.29 1.29 0 0 0 0 2.58M37.896 22.988a1.29 1.29 0 1 0 0-2.58 1.29 1.29 0 0 0 0 2.58M32.31 22.988a1.29 1.29 0 1 0 0-2.58 1.29 1.29 0 0 0 0 2.58"/><path fill="#9A9A9A" d="M24.602 33.705h-2.583a3.986 3.986 0 0 0-3.901-4.782 3.986 3.986 0 0 0-3.981 3.981c0 .577.124 1.125.345 1.62a8.5 8.5 0 0 0-.961.534v-1.699a5.78 5.78 0 0 0-2.162-4.52l-2.32-1.87a7.51 7.51 0 0 1-2.811-5.877.328.328 0 0 0-.656 0 8.17 8.17 0 0 0 3.055 6.388l2.32 1.87a5.13 5.13 0 0 1 1.916 4.009v2.164a8.6 8.6 0 0 0-2.284 2.726l-1.867 3.522a3.32 3.32 0 0 1-6.145-.717 23 23 0 0 1-.739-5.766c0-2.24.288-4.474.856-6.64l.16-.61a.328.328 0 0 0-.635-.166l-.16.61a26.9 26.9 0 0 0-.877 6.807c0 2 .256 3.996.76 5.93a3.977 3.977 0 0 0 7.36.86l1.867-3.523a7.92 7.92 0 0 1 3.64-3.455 3.98 3.98 0 0 0 3.32 1.785 3.99 3.99 0 0 0 3.703-2.524h2.779a.329.329 0 0 0 0-.657m-9.808-.8a3.33 3.33 0 0 1 3.325-3.326c.808 0 1.55.29 2.126.771a3.654 3.654 0 0 0-4.68 4.681 3.32 3.32 0 0 1-.771-2.127"/><path fill="#9A9A9A" d="m45.952 28.48-2.302-8.782a8.95 8.95 0 0 0-4.978-5.905 9 9 0 0 0-3.751-.803l.5-.946a.33.33 0 0 1 .289-.174h6.184c.026 0 .047.02.047.047v.795a.046.046 0 0 1-.04.046l-.98.148a.328.328 0 1 0 .098.649l.98-.148a.7.7 0 0 0 .598-.696v-.795a.703.703 0 0 0-.703-.703H35.71c-.366 0-.7.2-.87.524l-.68 1.287q-.69.06-1.361.223a33 33 0 0 1-7.864.956h-1.871c-2.648 0-5.293-.322-7.864-.956a9 9 0 0 0-1.36-.223l-.68-1.287a.98.98 0 0 0-.87-.524H6.106a.703.703 0 0 0-.703.703v.795a.7.7 0 0 0 .598.696l.98.148c.161.024.28.161.28.324v1.216a8.95 8.95 0 0 0-2.909 4.603l-1.573 6a.328.328 0 1 0 .635.166l1.573-6a8.3 8.3 0 0 1 4.613-5.474 8.36 8.36 0 0 1 5.445-.504c2.624.646 5.317.973 8.02.974h1.871c2.7 0 5.4-.328 8.02-.974a8.37 8.37 0 0 1 5.444.505 8.3 8.3 0 0 1 4.614 5.475l2.302 8.782a26.2 26.2 0 0 1 .856 6.642c0 1.944-.248 3.884-.738 5.765a3.32 3.32 0 0 1-6.146.718l-1.866-3.523a8.6 8.6 0 0 0-2.285-2.726V33.36c0-1.565.7-3.026 1.917-4.008l2.32-1.87a8.17 8.17 0 0 0 3.055-6.389.328.328 0 0 0-.656 0 7.51 7.51 0 0 1-2.812 5.877l-2.32 1.87a5.78 5.78 0 0 0-2.161 4.52v1.698a9 9 0 0 0-.962-.533c.228-.51.346-1.062.346-1.62a3.986 3.986 0 0 0-3.982-3.982 3.986 3.986 0 0 0-3.981 3.982 3.986 3.986 0 0 0 3.981 3.981c1.384 0 2.606-.71 3.32-1.785a7.9 7.9 0 0 1 3.64 3.456l1.866 3.522a3.97 3.97 0 0 0 3.513 2.114c1.81 0 3.39-1.222 3.847-2.973.505-1.935.76-3.93.76-5.93 0-2.297-.295-4.587-.877-6.81M9.33 13.794a9 9 0 0 0-1.412.802v-.716c0-.49-.352-.9-.837-.973l-.98-.148a.047.047 0 0 1-.04-.046v-.795c0-.026.02-.047.046-.047h6.184c.122 0 .234.067.29.175l.5.945a9 9 0 0 0-3.751.803m17.228 19.112a3.33 3.33 0 0 1 3.325-3.326c.808 0 1.55.29 2.127.772a3.654 3.654 0 0 0-4.681 4.681 3.3 3.3 0 0 1-.771-2.127"/><path fill="#9A9A9A" d="M22.357 11.44a.328.328 0 1 0 .464.465c.65-.65 1.71-.65 2.36 0a.328.328 0 0 0 .463-.464 2.327 2.327 0 0 0-3.287 0m5.294-1.676a.32.32 0 0 0 .302-.203.33.33 0 0 0-.07-.358 5.495 5.495 0 0 0-7.763 0 .328.328 0 1 0 .464.464 4.84 4.84 0 0 1 6.834 0 .33.33 0 0 0 .233.097"/><path fill="#9A9A9A" d="M17.906 6.988a8.56 8.56 0 0 1 6.096-2.525c2.302 0 4.467.897 6.095 2.525a.327.327 0 0 0 .463-.464 9.21 9.21 0 0 0-6.558-2.717 9.22 9.22 0 0 0-6.56 2.717.328.328 0 1 0 .464.464m7.273 16.13h-2.354a.716.716 0 0 0-.715.716v.794c0 .394.32.715.715.715h2.354c.395 0 .716-.32.716-.715v-.794a.72.72 0 0 0-.716-.716m-2.413 1.51v-.794c0-.033.026-.06.06-.06h.915a1.17 1.17 0 0 0-.366.853q0 .03.006.059h-.557a.06.06 0 0 1-.058-.058m2.413 1.645h-2.354a.716.716 0 0 0-.715.715v.794c0 .395.32.716.715.716h2.354c.395 0 .716-.321.716-.716v-.794a.72.72 0 0 0-.716-.715m-2.413 1.51v-.795c0-.033.026-.059.06-.059h.915a1.17 1.17 0 0 0-.366.852q0 .03.006.06h-.557a.06.06 0 0 1-.058-.059"/></svg>
